source/img/phone.svg

<svg width="30" height="30" viewBox="0 0 30 30" fill="none" xmlns="http://www.w3.org/2000/svg">
<path d="M7.39635 8.62432C7.31179 7.42623 7.57753 6.24606 8.28114 5.29684C8.89115 4.43632 9.68536 3.96636 10.6426 3.69172C11.4489 3.4525 11.9774 3.74561 12.2099 4.64204C12.5421 5.98224 13.0162 7.3225 13.1884 8.73361C13.2427 9.35485 12.8411 10.2332 12.4062 10.6856C11.3161 11.7589 11.5426 12.5399 12.37 14.1643C12.6267 14.6881 13.0344 15.5934 13.8286 16.7919C14.656 17.9992 15.0939 18.6472 16.1569 18.0975C17.3376 17.5035 18.1983 17.8855 19.0891 18.8444C19.6931 19.5369 20.3574 20.1318 20.9614 20.8243C21.8341 21.8542 21.7949 22.5641 21.1124 23.2915C19.8833 24.6309 17.854 25.0736 16.3441 24.1766C15.5106 23.6881 14.6802 23.0487 14.0188 22.303C11.1047 18.9825 9.00291 15.1212 7.73759 10.7632C7.53526 10.0265 7.44165 9.28104 7.39635 8.62432Z" stroke="#FE8978" stroke-width="2" stroke-miterlimit="10"/>
</svg>

<svg width="30" height="30" fill="#fff" xmlns="http://www.w3.org/2000/svg"><path d="M7.396 8.624c-.084-1.198.182-2.378.885-3.327.61-.86 1.404-1.33 2.362-1.605.806-.24 1.334.054 1.567.95.332 1.34.806 2.68.978 4.092.055.62-.347 1.5-.782 1.952-1.09 1.073-.863 1.854-.036 3.478.257.524.664 1.43 1.459 2.628.827 1.207 1.265 1.855 2.328 1.305 1.18-.594 2.041-.212 2.932.747.604.693 1.268 1.288 1.872 1.98.873 1.03.834 1.74.151 2.467-1.229 1.34-3.258 1.783-4.768.886-.833-.489-1.664-1.128-2.325-1.874-2.914-3.32-5.016-7.182-6.281-11.54a10.989 10.989 0 01-.342-2.139z" stroke="#FE8978" stroke-width="2" stroke-miterlimit="10"/></svg>
